icons/amazonmusic.svg

<svg xmlns="http://www.w3.org/2000/svg" width="32" height="32" fill="none" viewBox="0 0 32 32">
  <g clip-path="url(#a)">
    <path fill="url(#b)" d="M3.35 28.63C.9 26.18.02 22.18.02 15.97S.9 5.79 3.35 3.33C5.8.88 9.8 0 16.02 0s10.15.88 12.63 3.33c2.49 2.45 3.33 6.45 3.33 12.67s-.91 10.18-3.33 12.67S22.2 32 15.98 32 5.8 31.05 3.35 28.63Z"/>
    <path fill="#15191A" d="M18.83 15.37c.67-.56.84-1.74.7-1.91-.13-.17-1.3-.32-2.02.19-.11.08-.09.19.03.17.4-.05 1.29-.16 1.45.05.16.2-.18 1.05-.33 1.43-.04.11.05.16.16.07m8.14-5.7a.923.923 0 0 0-.83-.42c-.49 0-.77.23-.97.72h-.01v-.54c-.01-.06-.06-.09-.12-.1h-.66a.14.14 0 0 0-.14.12v3.53c0 .07.06.12.13.13h.71c.08 0 .14-.06.14-.12v-1.9c0-.24.01-.45.11-.67.08-.17.24-.28.41-.28.49 0 .44.56.44.95v1.92c0 .06.06.11.12.11H27c.07 0 .13-.05.14-.11v-2.22c0-.34 0-.82-.19-1.1m-7.01 10.45-.7-.27c-.21-.07-.4-.17-.57-.3a.497.497 0 0 1-.14-.37c0-.39.29-.58.87-.58.33 0 .66.05.97.14.09.03.17.05.21.05.08 0 .12-.06.12-.16v-.24c0-.07-.02-.13-.04-.17a.26.26 0 0 0-.16-.09c-.37-.14-.75-.21-1.14-.21-.43-.02-.85.1-1.19.36-.29.22-.46.57-.45.94 0 .59.33 1.01 1 1.26l.77.29c.19.06.36.15.51.27.09.09.14.21.14.35 0 .22-.08.38-.23.49-.15.12-.37.17-.67.17-.42 0-.84-.06-1.23-.19a.865.865 0 0 0-.23-.06c-.07 0-.11.06-.11.16v.25c0 .08.01.13.04.17.02.03.08.07.15.1.4.17.86.25 1.36.25.53 0 .95-.12 1.27-.37.31-.24.49-.62.48-1.01 0-.3-.08-.54-.23-.73-.21-.22-.47-.39-.77-.49m-2.36-7.06c.75-.38 1.64-.39 2.39 0 .08.05.17-.04.17-.11v-.53c0-.08-.03-.15-.12-.2-.4-.2-.84-.3-1.29-.27l1.17-1.66c.11-.15.17-.24.17-.31v-.43c0-.07-.06-.12-.13-.12h-2.26c-.07 0-.13.05-.13.12v.5c0 .08.06.12.13.12h1.18l-1.36 1.93c-.08.12-.08.26-.08.34v.51c0 .07.08.16.16.12m4.48-.71c-.54 0-.53-.91-.53-1.33 0-.42.03-1.1.54-1.1.22 0 .37.09.45.33.09.28.1.62.1.92 0 .44-.02 1.17-.56 1.17m0-3.13c-.99 0-1.54.84-1.54 1.92s.54 1.93 1.54 1.93 1.56-.84 1.56-1.89c0-1.05-.55-1.96-1.56-1.96Zm.11 7.03c-.18 0-.33.05-.43.16-.1.11-.16.25-.16.42 0 .17.05.31.16.42.11.11.25.16.43.16s.32-.05.43-.16c.1-.11.16-.25.16-.42 0-.17-.05-.31-.16-.42a.573.573 0 0 0-.43-.16Zm.29 1.85h-.58c-.13 0-.2.06-.2.18v4.26c0 .12.06.18.2.18h.58c.13 0 .19-.06.19-.18v-4.25c0-.12-.06-.18-.19-.18M6.72 12.11c-.11.19-.28.3-.47.3-.26 0-.42-.19-.42-.48 0-.57.52-.67 1.02-.67v.14c0 .26 0 .48-.12.71m.12-1.39c-.39.04-.91.08-1.28.23-.45.17-.75.61-.73 1.09 0 .69.45 1.04 1.02 1.04.49 0 .75-.11 1.12-.49.12.17.17.26.39.45.05.03.12.02.16-.02l.52-.44c.06-.04.05-.12 0-.18-.12-.17-.26-.3-.26-.62v-1.04c0-.44.03-.84-.3-1.15-.26-.25-.7-.33-1.03-.33-.65 0-1.37.24-1.52 1.02-.02.08.04.12.1.14l.66.07c.06 0 .11-.06.12-.12.06-.27.29-.4.55-.4.14 0 .3.05.38.17.09.14.08.33.08.48v.08l.02.02Zm3.67 7.22c-.65.02-1.28.23-1.8.62-.2-.42-.58-.62-1.15-.62-.61.02-1.2.22-1.7.58l-.06-.28c-.01-.07-.03-.11-.07-.13a.265.265 0 0 0-.14-.03h-.4c-.12 0-.18.06-.18.18v4.13c0 .12.06.18.18.18h.54c.12 0 .18-.06.18-.18v-3.34c.4-.25.86-.39 1.33-.39.25 0 .43.07.54.21.11.14.17.36.17.66v2.87c0 .12.06.18.18.18h.54c.12 0 .18-.06.18-.18v-3.33c.4-.25.86-.39 1.34-.4.25 0 .43.07.54.21.12.14.18.36.18.66v2.87c0 .12.06.18.18.18h.53c.12 0 .18-.06.18-.18v-3.12c0-.42-.11-.75-.34-.98-.23-.23-.55-.34-.96-.34m6.17.16h-.53c-.12 0-.18.06-.18.18v3.31c-.44.28-.87.42-1.3.42-.28 0-.48-.07-.61-.23-.12-.15-.19-.38-.19-.7V18.3c0-.12-.06-.18-.18-.18h-.53c-.12 0-.18.06-.18.18v3.09c0 .43.11.77.34 1 .23.24.55.36.98.36.59 0 1.16-.21 1.72-.61l.06.31c0 .05.03.1.07.13.04.03.09.04.14.03h.39c.12 0 .18-.06.18-.18V18.3c0-.12-.06-.18-.18-.18m10.34 3.74s-.09.01-.14.03c-.3.08-.58.12-.83.12-.5 0-.87-.12-1.09-.38-.23-.26-.35-.66-.35-1.22v-.12c0-.57.11-.97.34-1.23.23-.26.6-.39 1.12-.39.26 0 .52.04.77.11.07.02.12.03.15.03.08 0 .12-.06.12-.18v-.25c0-.08-.01-.14-.04-.18a.307.307 0 0 0-.14-.09 2.97 2.97 0 0 0-.98-.17c-.73 0-1.29.21-1.69.63-.4.42-.6 1.02-.6 1.79s.19 1.37.58 1.78c.38.41.94.61 1.67.61.4 0 .75-.06 1.06-.19.07-.03.12-.06.15-.1.03-.05.04-.11.04-.17v-.24c0-.12-.04-.18-.12-.18M8.65 13.1h.69c.07 0 .13-.06.13-.12v-1.87c0-.41-.02-.97.48-.97s.42.58.42.97v1.87c0 .07.06.12.12.12h.69c.07 0 .13-.06.13-.12v-1.87c0-.2 0-.5.06-.67.07-.17.23-.28.42-.29.2 0 .36.07.41.31.03.14.02.51.02.66v1.87c0 .07.06.12.12.12h.69c.08 0 .14-.06.14-.12v-2.23c0-.38.04-.81-.18-1.11-.19-.25-.49-.39-.8-.39-.41 0-.79.21-.95.66-.19-.45-.47-.66-.9-.66-.43 0-.74.21-.91.66h-.02v-.46c0-.06-.06-.12-.12-.12h-.64c-.07 0-.13.06-.13.13V13c0 .06.06.11.12.12m7.17-1.72c0 .26 0 .48-.12.71-.11.19-.28.31-.48.31-.26 0-.42-.2-.42-.48 0-.57.52-.67 1.02-.67v.14-.01Zm0-.68c-.4.04-.91.08-1.28.23-.45.17-.75.61-.73 1.09 0 .69.45 1.04 1.02 1.04.49 0 .75-.11 1.12-.49.12.17.17.26.39.45.05.03.12.02.16-.02l.52-.44c.06-.04.05-.12 0-.18-.12-.17-.26-.3-.26-.62v-1.04c0-.44.03-.84-.3-1.15-.26-.25-.7-.33-1.03-.33-.65 0-1.37.24-1.52 1.02-.02.08.05.12.1.14l.66.07c.06 0 .11-.06.12-.12.06-.27.29-.4.55-.4.14 0 .3.05.38.17.09.14.08.33.08.48v.08l.02.02Zm-7.82 2.96a8.785 8.785 0 0 0 5.79 2.12c1.6 0 3.46-.48 4.74-1.39.21-.15.03-.37-.19-.29a11.892 11.892 0 0 1-10.2-.61c-.14-.08-.25.06-.13.17"/>
  </g>
  <defs>
    <linearGradient id="b" x1="16" x2="16" y1="-.03" y2="31.97" gradientUnits="userSpaceOnUse">
      <stop stop-color="#8BE2EB"/>
      <stop offset="1" stop-color="#25D1DA"/>
    </linearGradient>
    <clipPath id="a">
      <path fill="#fff" d="M0 0h32v32H0z"/>
    </clipPath>
  </defs>
</svg>

<svg width="32" height="32" viewBox="0 0 32 32" fill="none" xmlns="http://www.w3.org/2000/svg">
<g clip-path="url(#clip0_29_70)">
<path d="M3.35 28.63C0.899997 26.18 0.0199966 22.18 0.0199966 15.97C0.0199966 9.76 0.899997 5.79 3.35 3.33C5.8 0.88 9.8 0 16.02 0C22.24 0 26.17 0.88 28.65 3.33C31.14 5.78 31.98 9.78 31.98 16C31.98 22.22 31.07 26.18 28.65 28.67C26.23 31.16 22.2 32 15.98 32C9.76 32 5.8 31.05 3.35 28.63Z" fill="url(#paint0_linear_29_70)"/>
<path d="M18.84 15.37C19.51 14.81 19.68 13.63 19.54 13.46C19.41 13.29 18.24 13.14 17.52 13.65C17.41 13.73 17.43 13.84 17.55 13.82C17.95 13.77 18.84 13.66 19 13.87C19.16 14.07 18.82 14.92 18.67 15.3C18.63 15.41 18.72 15.46 18.83 15.37M26.97 9.66997C26.79 9.38997 26.47 9.22997 26.14 9.24997C25.65 9.24997 25.37 9.47997 25.17 9.96997H25.16V9.42997C25.15 9.36997 25.1 9.33997 25.04 9.32997H24.38C24.31 9.32997 24.25 9.37997 24.24 9.44997V12.98C24.24 13.05 24.3 13.1 24.37 13.11H25.08C25.16 13.11 25.22 13.05 25.22 12.99V11.09C25.22 10.85 25.23 10.64 25.33 10.42C25.41 10.25 25.57 10.14 25.74 10.14C26.23 10.14 26.18 10.7 26.18 11.09V13.01C26.18 13.07 26.24 13.12 26.3 13.12H27.01C27.08 13.12 27.14 13.07 27.15 13.01V10.79C27.15 10.45 27.15 9.96997 26.96 9.68997M19.95 20.14L19.25 19.87C19.04 19.8 18.85 19.7 18.68 19.57C18.59 19.48 18.54 19.36 18.54 19.2C18.54 18.81 18.83 18.62 19.41 18.62C19.74 18.62 20.07 18.67 20.38 18.76C20.47 18.79 20.55 18.81 20.59 18.81C20.67 18.81 20.71 18.75 20.71 18.65V18.41C20.71 18.34 20.69 18.28 20.67 18.24C20.63 18.19 20.57 18.16 20.51 18.15C20.14 18.01 19.76 17.94 19.37 17.94C18.94 17.92 18.52 18.04 18.18 18.3C17.89 18.52 17.72 18.87 17.73 19.24C17.73 19.83 18.06 20.25 18.73 20.5L19.5 20.79C19.69 20.85 19.86 20.94 20.01 21.06C20.1 21.15 20.15 21.27 20.15 21.41C20.15 21.63 20.07 21.79 19.92 21.9C19.77 22.02 19.55 22.07 19.25 22.07C18.83 22.07 18.41 22.01 18.02 21.88C17.95 21.85 17.87 21.83 17.79 21.82C17.72 21.82 17.68 21.88 17.68 21.98V22.23C17.68 22.31 17.69 22.36 17.72 22.4C17.74 22.43 17.8 22.47 17.87 22.5C18.27 22.67 18.73 22.75 19.23 22.75C19.76 22.75 20.18 22.63 20.5 22.38C20.81 22.14 20.99 21.76 20.98 21.37C20.98 21.07 20.9 20.83 20.75 20.64C20.54 20.42 20.28 20.25 19.98 20.15M17.62 13.09C18.37 12.71 19.26 12.7 20.01 13.09C20.09 13.14 20.18 13.05 20.18 12.98V12.45C20.18 12.37 20.15 12.3 20.06 12.25C19.66 12.05 19.22 11.95 18.77 11.98L19.94 10.32C20.05 10.17 20.11 10.08 20.11 10.01V9.57997C20.11 9.50997 20.05 9.45997 19.98 9.45997H17.72C17.65 9.45997 17.59 9.50997 17.59 9.57997V10.08C17.59 10.16 17.65 10.2 17.72 10.2H18.9L17.54 12.13C17.46 12.25 17.46 12.39 17.46 12.47V12.98C17.46 13.05 17.54 13.14 17.62 13.1M22.1 12.39C21.56 12.39 21.57 11.48 21.57 11.06C21.57 10.64 21.6 9.95997 22.11 9.95997C22.33 9.95997 22.48 10.05 22.56 10.29C22.65 10.57 22.66 10.91 22.66 11.21C22.66 11.65 22.64 12.38 22.1 12.38M22.1 9.24997C21.11 9.24997 20.56 10.09 20.56 11.17C20.56 12.25 21.1 13.1 22.1 13.1C23.1 13.1 23.66 12.26 23.66 11.21C23.66 10.16 23.11 9.24997 22.1 9.24997ZM22.21 16.28C22.03 16.28 21.88 16.33 21.78 16.44C21.68 16.55 21.62 16.69 21.62 16.86C21.62 17.03 21.67 17.17 21.78 17.28C21.89 17.39 22.03 17.44 22.21 17.44C22.39 17.44 22.53 17.39 22.64 17.28C22.74 17.17 22.8 17.03 22.8 16.86C22.8 16.69 22.75 16.55 22.64 16.44C22.53 16.33 22.39 16.28 22.21 16.28ZM22.5 18.13H21.92C21.79 18.13 21.72 18.19 21.72 18.31V22.57C21.72 22.69 21.78 22.75 21.92 22.75H22.5C22.63 22.75 22.69 22.69 22.69 22.57V18.32C22.69 18.2 22.63 18.14 22.5 18.14M6.73 12.11C6.62 12.3 6.45 12.41 6.26 12.41C6 12.41 5.84 12.22 5.84 11.93C5.84 11.36 6.36 11.26 6.86 11.26V11.4C6.86 11.66 6.86 11.88 6.74 12.11M6.86 10.72C6.47 10.76 5.95 10.8 5.58 10.95C5.13 11.12 4.83 11.56 4.85 12.04C4.85 12.73 5.3 13.08 5.87 13.08C6.36 13.08 6.62 12.97 6.99 12.59C7.11 12.76 7.16 12.85 7.38 13.04C7.43 13.07 7.5 13.06 7.54 13.02L8.06 12.58C8.12 12.54 8.11 12.46 8.06 12.4C7.94 12.23 7.8 12.1 7.8 11.78V10.74C7.8 10.3 7.83 9.89997 7.5 9.58997C7.24 9.33997 6.8 9.25997 6.47 9.25997C5.82 9.25997 5.1 9.49997 4.95 10.28C4.93 10.36 4.99 10.4 5.05 10.42L5.71 10.49C5.77 10.49 5.82 10.43 5.83 10.37C5.89 10.1 6.12 9.96997 6.38 9.96997C6.52 9.96997 6.68 10.02 6.76 10.14C6.85 10.28 6.84 10.47 6.84 10.62V10.7L6.86 10.72ZM10.53 17.94C9.88 17.96 9.25 18.17 8.73 18.56C8.53 18.14 8.15 17.94 7.58 17.94C6.97 17.96 6.38 18.16 5.88 18.52L5.82 18.24C5.81 18.17 5.79 18.13 5.75 18.11C5.72 18.09 5.67 18.08 5.61 18.08H5.21C5.09 18.08 5.03 18.14 5.03 18.26V22.39C5.03 22.51 5.09 22.57 5.21 22.57H5.75C5.87 22.57 5.93 22.51 5.93 22.39V19.05C6.33 18.8 6.79 18.66 7.26 18.66C7.51 18.66 7.69 18.73 7.8 18.87C7.91 19.01 7.97 19.23 7.97 19.53V22.4C7.97 22.52 8.03 22.58 8.15 22.58H8.69C8.81 22.58 8.87 22.52 8.87 22.4V19.2C8.87 19.2 8.87 19.11 8.87 19.07C9.27 18.82 9.73 18.68 10.21 18.67C10.46 18.67 10.64 18.74 10.75 18.88C10.87 19.02 10.93 19.24 10.93 19.54V22.41C10.93 22.53 10.99 22.59 11.11 22.59H11.64C11.76 22.59 11.82 22.53 11.82 22.41V19.29C11.82 18.87 11.71 18.54 11.48 18.31C11.25 18.08 10.93 17.97 10.52 17.97M16.69 18.13H16.16C16.04 18.13 15.98 18.19 15.98 18.31V21.62C15.54 21.9 15.11 22.04 14.68 22.04C14.4 22.04 14.2 21.97 14.07 21.81C13.95 21.66 13.88 21.43 13.88 21.11V18.3C13.88 18.18 13.82 18.12 13.7 18.12H13.17C13.05 18.12 12.99 18.18 12.99 18.3V21.39C12.99 21.82 13.1 22.16 13.33 22.39C13.56 22.63 13.88 22.75 14.31 22.75C14.9 22.75 15.47 22.54 16.03 22.14L16.09 22.45C16.09 22.5 16.12 22.55 16.16 22.58C16.2 22.61 16.25 22.62 16.3 22.61H16.69C16.81 22.61 16.87 22.55 16.87 22.43V18.3C16.87 18.18 16.81 18.12 16.69 18.12M27.03 21.86C27.03 21.86 26.94 21.87 26.89 21.89C26.59 21.97 26.31 22.01 26.06 22.01C25.56 22.01 25.19 21.89 24.97 21.63C24.74 21.37 24.62 20.97 24.62 20.41V20.29C24.62 19.72 24.73 19.32 24.96 19.06C25.19 18.8 25.56 18.67 26.08 18.67C26.34 18.67 26.6 18.71 26.85 18.78C26.92 18.8 26.97 18.81 27 18.81C27.08 18.81 27.12 18.75 27.12 18.63V18.38C27.12 18.3 27.11 18.24 27.08 18.2C27.04 18.16 26.99 18.12 26.94 18.11C26.63 18 26.29 17.94 25.96 17.94C25.23 17.94 24.67 18.15 24.27 18.57C23.87 18.99 23.67 19.59 23.67 20.36C23.67 21.13 23.86 21.73 24.25 22.14C24.63 22.55 25.19 22.75 25.92 22.75C26.32 22.75 26.67 22.69 26.98 22.56C27.05 22.53 27.1 22.5 27.13 22.46C27.16 22.41 27.17 22.35 27.17 22.29V22.05C27.17 21.93 27.13 21.87 27.05 21.87M8.66 13.1H9.35C9.42 13.1 9.48 13.04 9.48 12.98V11.11C9.48 10.7 9.46 10.14 9.96 10.14C10.46 10.14 10.38 10.72 10.38 11.11V12.98C10.38 13.05 10.44 13.1 10.5 13.1H11.19C11.26 13.1 11.32 13.04 11.32 12.98V11.11C11.32 10.91 11.32 10.61 11.38 10.44C11.45 10.27 11.61 10.16 11.8 10.15C12 10.15 12.16 10.22 12.21 10.46C12.24 10.6 12.23 10.97 12.23 11.12V12.99C12.23 13.06 12.29 13.11 12.35 13.11H13.04C13.12 13.11 13.18 13.05 13.18 12.99V10.76C13.18 10.38 13.22 9.94997 13 9.64997C12.81 9.39997 12.51 9.25997 12.2 9.25997C11.79 9.25997 11.41 9.46997 11.25 9.91997C11.06 9.46997 10.78 9.25997 10.35 9.25997C9.92 9.25997 9.61 9.46997 9.44 9.91997H9.42V9.45997C9.42 9.39997 9.36 9.33997 9.3 9.33997H8.66C8.59 9.33997 8.53 9.39997 8.53 9.46997V13C8.53 13.06 8.59 13.11 8.65 13.12M15.82 11.4C15.82 11.66 15.82 11.88 15.7 12.11C15.59 12.3 15.42 12.42 15.22 12.42C14.96 12.42 14.8 12.22 14.8 11.94C14.8 11.37 15.32 11.27 15.82 11.27V11.41V11.4ZM15.82 10.72C15.42 10.76 14.91 10.8 14.54 10.95C14.09 11.12 13.79 11.56 13.81 12.04C13.81 12.73 14.26 13.08 14.83 13.08C15.32 13.08 15.58 12.97 15.95 12.59C16.07 12.76 16.12 12.85 16.34 13.04C16.39 13.07 16.46 13.06 16.5 13.02L17.02 12.58C17.08 12.54 17.07 12.46 17.02 12.4C16.9 12.23 16.76 12.1 16.76 11.78V10.74C16.76 10.3 16.79 9.89997 16.46 9.58997C16.2 9.33997 15.76 9.25997 15.43 9.25997C14.78 9.25997 14.06 9.49997 13.91 10.28C13.89 10.36 13.96 10.4 14.01 10.42L14.67 10.49C14.73 10.49 14.78 10.43 14.79 10.37C14.85 10.1 15.08 9.96997 15.34 9.96997C15.48 9.96997 15.64 10.02 15.72 10.14C15.81 10.28 15.8 10.47 15.8 10.62V10.7L15.82 10.72ZM8 13.68C9.61 15.06 11.67 15.82 13.79 15.8C15.39 15.8 17.25 15.32 18.53 14.41C18.74 14.26 18.56 14.04 18.34 14.12C15.02 15.46 11.27 15.24 8.14 13.51C8 13.43 7.89 13.57 8.01 13.68" fill="#15191A"/>
</g>
<defs>
<linearGradient id="paint0_linear_29_70" x1="16" y1="-0.03" x2="16" y2="31.97" gradientUnits="userSpaceOnUse">
<stop stop-color="#8BE2EB"/>
<stop offset="1" stop-color="#25D1DA"/>
</linearGradient>
<clipPath id="clip0_29_70">
<rect width="32" height="32" fill="white"/>
</clipPath>
</defs>
</svg>
